static/files/images/img-logo.svg

<?xml version="1.0" encoding="UTF-8"?>
<svg version="1.1" viewBox="0 0 240 116" xmlns="http://www.w3.org/2000/svg" xmlns:xlink="http://www.w3.org/1999/xlink">
<g transform="matrix(2 0 0 2 -36634 984)">
<use transform="translate(18386 -479.12)" fill="#FFFFFF" xlink:href="#f"/>
<use transform="translate(18367 -492)" fill="#F17221" xlink:href="#e"/>
<use transform="translate(18363 -481.77)" fill="#FFFFFF" xlink:href="#d"/>
<use transform="translate(18385 -447.03)" fill="#FFFFFF" xlink:href="#c"/>
<use transform="translate(18361 -447.6)" fill="#F17221" xlink:href="#b"/>
<use transform="translate(18317 -447.15)" fill="#FFFFFF" xlink:href="#a"/>
</g>
<defs>
<path id="f" d="m3.4669 1.4355c-0.89125-0.88904-2.1177-1.4355-3.4669-1.4355v3.3523c0.42518 0 0.80948 0.17129 1.0875 0.45676 0.27801 0.27732 0.45789 0.66882 0.45789 1.0848 0 0.42414-0.17171 0.80748-0.45789 1.0848-0.278 0.27732-0.67048 0.45676-1.0875 0.45676v3.3604c1.3491 0 2.5838-0.55464 3.4669-1.4355 0.89125-0.88905 1.4391-2.1125 1.4391-3.4665 0-1.3458-0.55601-2.5774-1.4391-3.4583z" fill-rule="evenodd"/>
<path id="e" d="m11.235 14.543c0.1553 0.3507 0.6214 0.3507 1.0875 0.3589 0.4742 0.0081 1.2346 0.0326 1.7579 0.0081 0.0736 0 0.139-0.0081 0.1963-0.0081 0.466-0.0327 0.7032-0.0898 0.7686-0.5873 0.0409-0.2855 0.0081-0.6933 0.0245-1.2887 0.0164-0.4568-0.0164-0.416 0.1799-0.8319 0.4088-0.7586 0.3516-1.1093 1.2428-1.1582 0.6705-0.0327 1.5781 0.0734 1.5781-0.7586v-0.0571c0.0082-1.0603 0.229-2.349-0.7604-2.349-0.9567 0-2.2731 0.22837-2.314-1.1664-0.0082-0.56279-0.139-2.0636 0.7523-2.0228 0.4497 0.01631 1.2919 0.15497 1.2919-0.50569 0-1.8026 0.1635-1.6394-1.6435-1.6394-1.0875 0 0.0817 1.933-1.1693 2.5774-0.2044 0.10603-0.2943 0.12234-0.5233 0.12234-0.3516 0-0.8667-0.01631-0.8667 0.5057 0 0.73407-0.1635 1.6394 0.5233 1.6394l0.7604 0.01632c0.2862 0.03262 0.3353 0.04078 0.5151 0.29363 0.3189 0.49753 0.3762 2.088 0.2126 2.7486-0.2044 0.6933-0.6623 1.2153-1.3818 1.3948-0.368 0.0489-1.1039-0.0082-1.529-0.0082-0.8095 0-0.8095 0.8564-0.7768 1.7536 0.0082 0.2203 0.0163 0.4405 0.0163 0.6525 0 0.1305 0.0246 0.2284 0.0573 0.31zm2.3058-14.543h0.556c0.2289 0 0.417 0.1876 0.417 0.41597v0.55463c0 0.22837-0.1881 0.41597-0.417 0.41597h-0.556c-0.229 0-0.417-0.1876-0.417-0.41597v-0.55463c0-0.22838 0.188-0.41597 0.417-0.41597zm-3.2543 14.543h-10.286v6.9492c0 3.8172 3.1398 6.9492 6.9665 6.9492h0.139c3.8348 0 6.9665-3.132 6.9665-6.9492v-5.6687c-0.5806 0.0245-1.1857-0.0081-1.7662-0.0163-0.556-0.0081-1.1038-0.0244-1.5536-0.416-0.2616-0.212-0.4088-0.5138-0.466-0.8482z" fill-rule="evenodd"/>
<path id="d" d="m18.275 1.2446e-7h-16.59-1.6844v1.6802 9.5919c0 3.0994 1.2674 5.9215 3.3197 7.9606 2.0442 2.0391 4.8733 3.3115 7.9804 3.3115h0.1553c3.1072 0 5.9363-1.2643 7.9804-3.3115 2.0442-2.0391 3.3197-4.8612 3.3197-7.9606v-7.251-0.66066-2.0065c-0.4497 0.35072-1.0139 0.35072-1.5699 0.40781-0.3925 0.04079-0.3925 0.04079-0.5151 0.20391-0.4743 0.62804-0.2371 1.4926-0.3434 2.2512-0.0982 0.68513-0.4252 1.0685-0.9322 1.2561v5.7992c0 2.1777-0.8912 4.1516-2.3303 5.5871s-3.4178 2.3246-5.601 2.3246h-0.1553c-2.175 0-4.1619-0.8891-5.601-2.3246-1.4391-1.4355-2.3303-3.4094-2.3303-5.5871v-7.9117h11.186c-0.0246-0.78301-0.0328-1.6884 0.5805-2.2675 0.3107-0.29363 0.7114-0.42413 1.1447-0.42413 0.3925 0 0.9485 0.06525 1.341 0.024468 0.2862-0.08972 0.5233-0.30994 0.6214-0.59541l0.0245-0.097876z" fill-rule="evenodd"/>
<path id="c" d="m4.8651 10.057c0.55601 0 1.0711-0.08973 1.529-0.26917 0.46607-0.17944 0.85855-0.43228 1.1856-0.76669 0.32707-0.33442 0.58054-0.71777 0.76861-1.1745 0.17988-0.4486 0.278-0.9543 0.278-1.5089v-0.03263c0-0.54647-0.08994-1.044-0.278-1.5089-0.17989-0.46492-0.44154-0.85642-0.76861-1.1908-0.32706-0.33441-0.71954-0.58726-1.1856-0.77485-0.46606-0.17944-0.97302-0.27732-1.529-0.27732h-2.1177v7.4957h2.1177v0.0082zm-4.8651-9.9671h4.8569c0.97302 0 1.8643 0.15497 2.6819 0.47307 0.80948 0.30994 1.5127 0.75038 2.1014 1.305 0.58867 0.55463 1.0385 1.2071 1.3655 1.9657 0.3189 0.75038 0.4824 1.566 0.4824 2.4388v0.03262c0 0.87273-0.1635 1.6965-0.4824 2.4469-0.3189 0.75854-0.7768 1.411-1.3655 1.9738-0.58872 0.5628-1.2837 0.9951-2.1014 1.3213-0.80949 0.3181-1.7089 0.4813-2.6819 0.4813h-4.8569v-12.438zm21.079 7.2265l-1.6517-4.0292-1.6598 4.0292h3.3115zm-2.8863-7.3163h2.5265l5.3394 12.52h-2.8618l-1.1366-2.7895h-5.2657l-1.1366 2.7895h-2.8046l5.3394-12.52zm12.698 2.6182h-3.7939v-2.5203h10.327v2.5203h-3.794v9.91h-2.7392v-9.91zm15.789 4.6981l-1.6599-4.0292-1.6516 4.0292h3.3115zm-2.8863-7.3163h2.5265l5.3394 12.52h-2.8619l-1.1365-2.7895h-5.2657l-1.1366 2.7895h-2.7964l5.3312-12.52z" fill-rule="evenodd"/>
<path id="b" d="m5.1758 10.97c0.39247 0 0.73589-0.0652 1.0384-0.2039 0.30253-0.1387 0.56419-0.3263 0.77678-0.5628 0.21259-0.23653 0.37612-0.51384 0.49059-0.82379 0.11448-0.31809 0.17171-0.64435 0.17171-1.0032v-0.03262c0-0.35888-0.05724-0.69329-0.17989-1.0032-0.12264-0.30994-0.29435-0.59541-0.51512-0.83194-0.22895-0.2447-0.4906-0.43229-0.80131-0.57911-0.31071-0.13866-0.64595-0.21206-1.0139-0.21206-0.39248 0-0.73589 0.06525-1.0384 0.20391-0.30253 0.13865-0.56418 0.32625-0.77678 0.56279-0.21259 0.23653-0.37612 0.51385-0.49059 0.82379-0.11448 0.30994-0.17171 0.64435-0.17171 1.0032v0.03263c0 0.35888 0.05723 0.69328 0.17988 1.0032 0.12265 0.30994 0.29436 0.59541 0.51513 0.83191 0.22894 0.2447 0.4906 0.4323 0.79313 0.5791 0.30253 0.1469 0.64595 0.2121 1.0221 0.2121zm-0.03271 2.3327c-0.7359 0-1.4146-0.1305-2.0442-0.3833-0.6296-0.2529-1.1693-0.6036-1.6272-1.044-0.45789-0.4405-0.81766-0.9625-1.0793-1.5661-0.26165-0.59538-0.39248-1.2397-0.39248-1.9249v-0.03263c0-0.68513 0.13083-1.3295 0.39248-1.9249 0.26165-0.59541 0.62142-1.1174 1.0875-1.5742 0.46606-0.4486 1.0057-0.80749 1.6353-1.0685s1.3164-0.39151 2.0687-0.39151c0.7359 0 1.4146 0.13051 2.0442 0.38335 0.6296 0.25285 1.1692 0.60357 1.6271 1.044 0.45789 0.44044 0.81767 0.96245 1.0793 1.566 0.26161 0.59541 0.39251 1.2398 0.39251 1.9249v0.03263c0 0.68513-0.1309 1.3295-0.39251 1.9249-0.26165 0.5954-0.62142 1.1255-1.0875 1.5741s-1.0057 0.8075-1.6353 1.0685c-0.63778 0.261-1.3246 0.3915-2.0687 0.3915zm7.5961-7.4304h-1.1202v-2.2185h1.1202v-0.60357c0-1.0277 0.2534-1.8026 0.7686-2.3083 0.4987-0.49754 1.2265-0.74223 2.1913-0.74223 0.4252 0 0.7931 0.024466 1.0957 0.073404 0.3025 0.048938 0.5805 0.11419 0.8258 0.19575v2.2348c-0.2044-0.07341-0.4006-0.1305-0.5887-0.17128s-0.4007-0.06525-0.6378-0.06525c-0.6541 0-0.9812 0.34256-0.9812 1.0277v0.37519h2.1914v2.2022h-2.1505v7.2102h-2.7065v-7.2102h-0.0081z" fill-rule="evenodd"/>
<path id="a" d="m6.3941 12.854c-0.91578 0-1.7662-0.1631-2.5429-0.4975-0.78496-0.3344-1.4554-0.783-2.0278-1.3621-0.57237-0.571-1.0139-1.2561-1.3328-2.031-0.31889-0.77486-0.4906-1.615-0.4906-2.504v-0.03262c0-0.88904 0.16353-1.721 0.48242-2.4958 0.31889-0.77485 0.7686-1.4518 1.3328-2.0391 0.57236-0.58725 1.251-1.044 2.0442-1.3866 0.79313-0.33441 1.6762-0.50569 2.6329-0.50569 0.58054 0 1.112 0.048934 1.5944 0.13865 0.48242 0.097876 0.91578 0.22838 1.3083 0.39151s0.75227 0.36703 1.0875 0.60356c0.3353 0.23654 0.6378 0.49754 0.924 0.78302l-1.7416 2.0065c-0.4906-0.44045-0.98119-0.78301-1.4881-1.0277-0.50695-0.25285-1.0711-0.3752-1.7007-0.3752-0.5233 0-1.0057 0.09788-1.4473 0.30179s-0.82584 0.48123-1.1447 0.83195c-0.31889 0.35888-0.57236 0.7667-0.74407 1.2316-0.17989 0.46491-0.26983 0.97061-0.26983 1.5008v0.03262c0 0.53017 0.08994 1.0359 0.26983 1.5089s0.42518 0.88904 0.7359 1.2398c0.31071 0.35888 0.69501 0.63619 1.1366 0.84005 0.44153 0.204 0.93213 0.31 1.4718 0.31 0.71136 0 1.3164-0.1305 1.807-0.39151 0.49059-0.26101 0.98119-0.61173 1.4718-1.0685l1.7416 1.7618c-0.3189 0.3425-0.6541 0.6525-0.9975 0.9217-0.3435 0.2691-0.71959 0.5056-1.1284 0.7014-0.40883 0.1957-0.85855 0.3426-1.341 0.4404-0.49877 0.1142-1.0384 0.1713-1.6435 0.1713zm12.494-0.0244c-1.6762 0-2.9927-0.465-3.9493-1.3866-0.9649-0.9217-1.4473-2.3001-1.4473-4.1353v-7.1042h2.7392v7.0308c0 1.0195 0.2371 1.7862 0.7113 2.3001 0.4743 0.51382 1.1366 0.77482 1.9788 0.77482s1.5045-0.2528 1.9787-0.74219c0.4743-0.49754 0.7114-1.2398 0.7114-2.2348v-7.1205h2.7392v7.0145c0 0.94614-0.1309 1.7699-0.3843 2.4714-0.2535 0.70149-0.6215 1.2806-1.0957 1.7455s-1.0466 0.8156-1.7253 1.044c-0.6705 0.2284-1.4227 0.3426-2.2567 0.3426zm13.172-6.3538c0.6868 0 1.2265-0.17944 1.6026-0.53832 0.3762-0.35888 0.5724-0.80748 0.5724-1.3376v-0.03262c0-0.61172-0.1963-1.0848-0.5969-1.4029-0.4007-0.3181-0.9403-0.48123-1.6272-0.48123h-2.1177v3.8009h2.1668v-0.00816zm-4.9141-6.2722h5.094c0.7441 0 1.4145 0.10603 2.0033 0.30994 0.5887 0.20391 1.0875 0.49754 1.4963 0.88089 0.4088 0.37519 0.7195 0.83195 0.9403 1.3621s0.3271 1.1093 0.3271 1.7455v0.03263c0 0.71775-0.1309 1.354-0.3925 1.9004-0.2617 0.54647-0.6214 1.0032-1.0793 1.3703-0.4579 0.36704-0.9894 0.64436-1.6026 0.8238-0.6133 0.17944-1.2674 0.27731-1.9706 0.27731h-2.085v3.7275h-2.731v-12.43z" fill-rule="evenodd"/>
</defs>
</svg>

<svg width="240" height="116" viewBox="0 0 240 116" version="1.1" xmlns="http://www.w3.org/2000/svg" xmlns:xlink="http://www.w3.org/1999/xlink">
<title>Group</title>
<desc>Created using Figma</desc>
<g id="Canvas" transform="matrix(2 0 0 2 -36634 984)">
<g id="Group">
<g id="Vector">
<use xlink:href="#path0_fill" transform="translate(18386.5 -479.121)" fill="#FFFFFF"/>
</g>
<g id="Vector">
<use xlink:href="#path1_fill" transform="translate(18367 -492)" fill="#F17221"/>
</g>
<g id="Vector">
<use xlink:href="#path2_fill" transform="translate(18362.6 -481.772)" fill="#FFFFFF"/>
</g>
<g id="Vector">
<use xlink:href="#path3_fill" transform="translate(18385.3 -447.034)" fill="#FFFFFF"/>
</g>
<g id="Vector">
<use xlink:href="#path4_fill" transform="translate(18360.6 -447.597)" fill="#F17221"/>
</g>
<g id="Vector">
<use xlink:href="#path5_fill" transform="translate(18317 -447.148)" fill="#FFFFFF"/>
</g>
</g>
</g>
<defs>
<path id="path0_fill" fill-rule="evenodd" d="M 3.46688 1.43552C 2.57563 0.546476 1.34914 -4.97825e-07 1.99624e-06 -4.97825e-07L 1.99624e-06 3.35226C 0.425186 3.35226 0.809486 3.52355 1.08749 3.80902C 1.3655 4.08634 1.54538 4.47784 1.54538 4.89381C 1.54538 5.31795 1.37367 5.70129 1.08749 5.97861C 0.809486 6.25593 0.417009 6.43537 1.99624e-06 6.43537L 1.99624e-06 9.79579C 1.34914 9.79579 2.58381 9.24115 3.46688 8.36027C 4.35813 7.47122 4.90597 6.24777 4.90597 4.89381C 4.90597 3.54802 4.34996 2.31641 3.46688 1.43552Z"/>
<path id="path1_fill" fill-rule="evenodd" d="M 11.2347 14.5428C 11.39 14.8935 11.8561 14.8935 12.3222 14.9017C 12.7964 14.9098 13.5568 14.9343 14.0801 14.9098C 14.1537 14.9098 14.2191 14.9017 14.2764 14.9017C 14.7424 14.869 14.9796 14.8119 15.045 14.3144C 15.0859 14.0289 15.0531 13.6211 15.0695 13.0257C 15.0859 12.5689 15.0531 12.6097 15.2494 12.1938C 15.6582 11.4352 15.601 11.0845 16.4922 11.0356C 17.1627 11.0029 18.0703 11.109 18.0703 10.277L 18.0703 10.2199C 18.0785 9.15959 18.2993 7.87089 17.3099 7.87089C 16.3532 7.87089 15.0368 8.09926 14.9959 6.70453C 14.9877 6.14174 14.8569 4.64097 15.7482 4.68175C 16.1979 4.69806 17.0401 4.83672 17.0401 4.17606C 17.0401 2.3735 17.2036 2.53663 15.3966 2.53663C 14.3091 2.53663 15.4783 4.46968 14.2273 5.11404C 14.0229 5.22007 13.933 5.23638 13.704 5.23638C 13.3524 5.23638 12.8373 5.22007 12.8373 5.74208C 12.8373 6.47615 12.6738 7.3815 13.3606 7.3815L 14.121 7.39782C 14.4072 7.43044 14.4563 7.4386 14.6361 7.69145C 14.955 8.18898 15.0123 9.77947 14.8487 10.4401C 14.6443 11.1334 14.1864 11.6554 13.4669 11.8349C 13.0989 11.8838 12.363 11.8267 11.9379 11.8267C 11.1284 11.8267 11.1284 12.6831 11.1611 13.5803C 11.1693 13.8006 11.1774 14.0208 11.1774 14.2328C 11.1774 14.3633 11.202 14.4612 11.2347 14.5428ZM 13.5405 0L 14.0965 0C 14.3254 0 14.5135 0.187596 14.5135 0.415974L 14.5135 0.970607C 14.5135 1.19898 14.3254 1.38658 14.0965 1.38658L 13.5405 1.38658C 13.3115 1.38658 13.1235 1.19898 13.1235 0.970607L 13.1235 0.415974C 13.1235 0.187596 13.3115 0 13.5405 0ZM 10.2862 14.5428L -9.98122e-07 14.5428L -9.98122e-07 21.492C -9.98122e-07 25.3092 3.13982 28.4412 6.96648 28.4412L 7.10548 28.4412C 10.9403 28.4412 14.072 25.3092 14.072 21.492L 14.072 15.8233C 13.4914 15.8478 12.8863 15.8152 12.3058 15.807C 11.7498 15.7989 11.202 15.7826 10.7522 15.391C 10.4906 15.179 10.3434 14.8772 10.2862 14.5428Z"/>
<path id="path2_fill" fill-rule="evenodd" d="M 18.2747 1.24456e-07L 1.68438 1.24456e-07L 9.98122e-07 1.24456e-07L 9.98122e-07 1.68021L 9.98122e-07 11.2721C 9.98122e-07 14.3715 1.26737 17.1936 3.3197 19.2327C 5.36386 21.2718 8.19297 22.5442 11.3001 22.5442L 11.4554 22.5442C 14.5626 22.5442 17.3917 21.2799 19.4358 19.2327C 21.48 17.1936 22.7555 14.3715 22.7555 11.2721L 22.7555 4.02108L 22.7555 3.36042L 22.7555 1.35396C 22.3058 1.70468 21.7416 1.70468 21.1856 1.76177C 20.7931 1.80256 20.7931 1.80256 20.6705 1.96568C 20.1962 2.59372 20.4334 3.4583 20.3271 4.21684C 20.2289 4.90197 19.9019 5.28532 19.3949 5.47292L 19.3949 11.2721C 19.3949 13.4498 18.5037 15.4237 17.0646 16.8592C 15.6255 18.2947 13.6468 19.1838 11.4636 19.1838L 11.3083 19.1838C 9.13328 19.1838 7.14636 18.2947 5.70728 16.8592C 4.26819 15.4237 3.37694 13.4498 3.37694 11.2721L 3.37694 3.36042L 14.5626 3.36042C 14.538 2.57741 14.5298 1.67205 15.1431 1.09295C 15.4538 0.799323 15.8545 0.668822 16.2878 0.668822C 16.6803 0.668822 17.2363 0.734072 17.6288 0.69329C 17.915 0.60357 18.1521 0.383349 18.2502 0.0978762L 18.2747 1.24456e-07Z"/>
<path id="path3_fill" fill-rule="evenodd" d="M 4.86508 10.0568C 5.42109 10.0568 5.93622 9.96707 6.39411 9.78763C 6.86018 9.60819 7.25266 9.35535 7.57972 9.02094C 7.90679 8.68652 8.16026 8.30317 8.34833 7.84642C 8.52821 7.39782 8.62633 6.89212 8.62633 6.33749L 8.62633 6.30486C 8.62633 5.75839 8.53639 5.26085 8.34833 4.79594C 8.16844 4.33102 7.90679 3.93952 7.57972 3.60511C 7.25266 3.2707 6.86018 3.01785 6.39411 2.83026C 5.92805 2.65082 5.42109 2.55294 4.86508 2.55294L 2.74734 2.55294L 2.74734 10.0486L 4.86508 10.0486L 4.86508 10.0568ZM -9.98122e-07 0.0897219L 4.85691 0.0897219C 5.82993 0.0897219 6.72118 0.244692 7.53884 0.56279C 8.34832 0.872731 9.05151 1.31317 9.64023 1.86781C 10.2289 2.42244 10.6787 3.07495 11.0057 3.83349C 11.3246 4.58387 11.4881 5.39951 11.4881 6.27224L 11.4881 6.30486C 11.4881 7.17759 11.3246 8.00139 11.0057 8.75177C 10.6868 9.51031 10.2289 10.1628 9.64023 10.7256C 9.05151 11.2884 8.3565 11.7207 7.53884 12.0469C 6.72935 12.365 5.82993 12.5282 4.85691 12.5282L -9.98122e-07 12.5282L -9.98122e-07 0.0897219ZM 21.0793 7.31625L 19.4276 3.28701L 17.7678 7.31625L 21.0793 7.31625ZM 18.193 -9.95649e-07L 20.7195 -9.95649e-07L 26.0589 12.52L 23.1971 12.52L 22.0605 9.73053L 16.7948 9.73053L 15.6582 12.52L 12.8536 12.52L 18.193 -9.95649e-07ZM 30.8912 2.61819L 27.0973 2.61819L 27.0973 0.0978763L 37.4244 0.0978763L 37.4244 2.61819L 33.6304 2.61819L 33.6304 12.5282L 30.8912 12.5282L 30.8912 2.61819ZM 46.6803 7.31625L 45.0204 3.28701L 43.3688 7.31625L 46.6803 7.31625ZM 43.794 -9.95649e-07L 46.3205 -9.95649e-07L 51.6599 12.52L 48.798 12.52L 47.6615 9.73053L 42.3958 9.73053L 41.2592 12.52L 38.4628 12.52L 43.794 -9.95649e-07Z"/>
<path id="path4_fill" fill-rule="evenodd" d="M 5.1758 10.9703C 5.56827 10.9703 5.91169 10.9051 6.21423 10.7664C 6.51676 10.6277 6.77842 10.4401 6.99101 10.2036C 7.2036 9.96707 7.36713 9.68976 7.4816 9.37981C 7.59608 9.06172 7.65331 8.73546 7.65331 8.37658L 7.65331 8.34396C 7.65331 7.98508 7.59607 7.65067 7.47342 7.34072C 7.35078 7.03078 7.17907 6.74531 6.9583 6.50878C 6.72935 6.26408 6.4677 6.07649 6.15699 5.92967C 5.84628 5.79101 5.51104 5.71761 5.14309 5.71761C 4.75061 5.71761 4.4072 5.78286 4.10466 5.92152C 3.80213 6.06017 3.54048 6.24777 3.32788 6.48431C 3.11529 6.72084 2.95176 6.99816 2.83729 7.3081C 2.72281 7.61804 2.66558 7.95245 2.66558 8.31133L 2.66558 8.34396C 2.66558 8.70284 2.72281 9.03724 2.84546 9.34719C 2.96811 9.65713 3.13982 9.9426 3.36059 10.1791C 3.58953 10.4238 3.85119 10.6114 4.15372 10.7582C 4.45625 10.9051 4.79967 10.9703 5.1758 10.9703ZM 5.14309 13.303C 4.40719 13.303 3.72853 13.1725 3.09894 12.9197C 2.46934 12.6668 1.92968 12.3161 1.47179 11.8757C 1.0139 11.4352 0.654129 10.9132 0.392478 10.3096C 0.130826 9.71422 9.98122e-07 9.06987 9.98122e-07 8.38474L 9.98122e-07 8.35211C 9.98122e-07 7.66698 0.130826 7.02263 0.392478 6.42721C 0.654129 5.8318 1.0139 5.30979 1.47997 4.85304C 1.94603 4.40444 2.48569 4.04555 3.11529 3.78455C 3.74489 3.52355 4.43172 3.39304 5.18397 3.39304C 5.91987 3.39304 6.59853 3.52355 7.22813 3.77639C 7.85773 4.02924 8.39738 4.37996 8.85527 4.82041C 9.31316 5.26085 9.67294 5.78286 9.93459 6.38643C 10.1962 6.98184 10.3271 7.62619 10.3271 8.31133L 10.3271 8.34396C 10.3271 9.02909 10.1962 9.67344 9.93459 10.2689C 9.67294 10.8643 9.31317 11.3944 8.8471 11.843C 8.38103 12.2916 7.84138 12.6505 7.21178 12.9115C 6.574 13.1725 5.88716 13.303 5.14309 13.303ZM 12.7392 5.87258L 11.619 5.87258L 11.619 3.65405L 12.7392 3.65405L 12.7392 3.05048C 12.7392 2.02278 12.9926 1.24792 13.5078 0.742229C 14.0065 0.244691 14.7343 1.9913e-06 15.6991 1.9913e-06C 16.1243 1.9913e-06 16.4922 0.0244681 16.7948 0.0734062C 17.0973 0.122344 17.3753 0.187597 17.6206 0.269161L 17.6206 2.504C 17.4162 2.43059 17.22 2.3735 17.0319 2.33272C 16.8438 2.29194 16.6312 2.26747 16.3941 2.26747C 15.74 2.26747 15.4129 2.61003 15.4129 3.29517L 15.4129 3.67036L 17.6043 3.67036L 17.6043 5.87258L 15.4538 5.87258L 15.4538 13.0828L 12.7473 13.0828L 12.7473 5.87258L 12.7392 5.87258Z"/>
<path id="path5_fill" fill-rule="evenodd" d="M 6.39411 12.8544C 5.47833 12.8544 4.62796 12.6913 3.85119 12.3569C 3.06623 12.0225 2.39575 11.5739 1.82339 10.9948C 1.25102 10.4238 0.809485 9.73869 0.490597 8.96384C 0.171709 8.18898 0 7.34888 0 6.45983L 0 6.42721C 0 5.53817 0.163532 4.70622 0.48242 3.93136C 0.801308 3.15651 1.25102 2.47953 1.81521 1.89227C 2.38757 1.30502 3.06623 0.848259 3.85936 0.505692C 4.65249 0.171282 5.53557 1.9913e-06 6.49223 1.9913e-06C 7.07277 1.9913e-06 7.60425 0.0489362 8.08667 0.138656C 8.56909 0.236532 9.00245 0.367038 9.39493 0.530165C 9.78741 0.693292 10.1472 0.897198 10.4824 1.13373C 10.8177 1.37027 11.1202 1.63127 11.4064 1.91675L 9.66476 3.92321C 9.17416 3.48276 8.68357 3.1402 8.17662 2.89551C 7.66967 2.64266 7.10548 2.52031 6.47588 2.52031C 5.95258 2.52031 5.47016 2.61819 5.02862 2.8221C 4.58708 3.02601 4.20278 3.30333 3.88389 3.65405C 3.565 4.01293 3.31153 4.42075 3.13982 4.88566C 2.95993 5.35057 2.86999 5.85627 2.86999 6.38643L 2.86999 6.41905C 2.86999 6.94922 2.95993 7.45491 3.13982 7.92798C 3.31971 8.40105 3.565 8.81702 3.87572 9.16775C 4.18643 9.52663 4.57073 9.80394 5.01227 10.0078C 5.4538 10.2118 5.9444 10.3178 6.48406 10.3178C 7.19542 10.3178 7.80049 10.1873 8.29109 9.92629C 8.78168 9.66528 9.27228 9.31456 9.76288 8.85781L 11.5045 10.6196C 11.1856 10.9621 10.8504 11.2721 10.507 11.5413C 10.1635 11.8104 9.78741 12.0469 9.37858 12.2427C 8.96975 12.4384 8.52003 12.5853 8.03761 12.6831C 7.53884 12.7973 6.99918 12.8544 6.39411 12.8544ZM 18.888 12.83C 17.2118 12.83 15.8953 12.365 14.9387 11.4434C 13.9738 10.5217 13.4914 9.14328 13.4914 7.3081L 13.4914 0.203911L 16.2306 0.203911L 16.2306 7.23469C 16.2306 8.25423 16.4677 9.02093 16.9419 9.53478C 17.4162 10.0486 18.0785 10.3096 18.9207 10.3096C 19.7629 10.3096 20.4252 10.0568 20.8994 9.56741C 21.3737 9.06987 21.6108 8.32764 21.6108 7.33257L 21.6108 0.212065L 24.35 0.212065L 24.35 7.22653C 24.35 8.17267 24.2191 8.99646 23.9657 9.69791C 23.7122 10.3994 23.3442 10.9785 22.87 11.4434C 22.3958 11.9083 21.8234 12.259 21.1447 12.4874C 20.4742 12.7158 19.722 12.83 18.888 12.83ZM 32.0605 6.47615C 32.7473 6.47615 33.287 6.29671 33.6631 5.93783C 34.0393 5.57895 34.2355 5.13035 34.2355 4.60018L 34.2355 4.56756C 34.2355 3.95584 34.0392 3.48277 33.6386 3.16467C 33.2379 2.84657 32.6983 2.68344 32.0114 2.68344L 29.8937 2.68344L 29.8937 6.48431L 32.0605 6.48431L 32.0605 6.47615ZM 27.1464 0.203911L 32.2404 0.203911C 32.9845 0.203911 33.6549 0.309943 34.2437 0.513852C 34.8324 0.717761 35.3312 1.01139 35.74 1.39474C 36.1488 1.76993 36.4595 2.22669 36.6803 2.75685C 36.9011 3.28701 37.0074 3.86611 37.0074 4.50231L 37.0074 4.53494C 37.0074 5.25269 36.8765 5.88889 36.6149 6.43537C 36.3532 6.98184 35.9935 7.4386 35.5356 7.80563C 35.0777 8.17267 34.5462 8.44999 33.933 8.62943C 33.3197 8.80887 32.6656 8.90674 31.9624 8.90674L 29.8774 8.90674L 29.8774 12.6342L 27.1464 12.6342L 27.1464 0.203911Z"/>
</defs>
</svg>
